ufans-frontend-package/public/assets/images/new-home/icon/message-1.svg

<svg width="417" height="417" viewBox="0 0 417 417" fill="none" xmlns="http://www.w3.org/2000/svg">
<path d="M416.053 12.6696C414.021 3.6616 404.181 -2.2904 395.221 0.8456C395.221 0.8456 10.741 136.542 10.501 136.654C4.16498 139.326 -0.34702 145.39 0.0209799 152.462C0.32498 158.078 3.97298 163.79 9.12498 166.19L173.541 242.942C173.541 242.942 250.053 406.878 250.549 407.758C257.397 420.11 274.549 418.43 279.877 405.918C279.877 405.918 415.621 21.3096 415.637 21.2456C416.597 18.5416 416.693 15.5176 416.053 12.6696V12.6696ZM262.709 358.35L204.805 234.302L253.461 185.646C259.717 179.39 259.717 169.278 253.461 163.022C247.205 156.766 237.093 156.766 230.837 163.022L182.181 211.678L58.117 153.758L374.309 42.1576L262.709 358.35Z" fill="#6661E7"/>
</svg>

<svg xmlns="http://www.w3.org/2000/svg" width="416.46" height="416.209" viewBox="0 0 416.46 416.209">
  <path id="message-1" d="M416.053,12.67C414.021,3.662,404.181-2.29,395.221.846c0,0-384.48,135.7-384.72,135.808C4.165,139.326-.347,145.39.021,152.462a16.638,16.638,0,0,0,9.1,13.728l164.416,76.752s76.512,163.936,77.008,164.816c6.848,12.352,24,10.672,29.328-1.84,0,0,135.744-384.608,135.76-384.672a15.61,15.61,0,0,0,.416-8.576ZM262.709,358.35,204.8,234.3l48.656-48.656a16,16,0,0,0-22.624-22.624l-48.656,48.656L58.117,153.758l316.192-111.6Z" fill="#e44499"/>
</svg>
